X:158
T: Die Rabenmutter
N: Q0114Y
O: Osteuropa, Ungarn
N: Transkription einer Tonaufnahme. Verzierung (Nachschlag) .
R: Ballade, Kinds - Mord, Strafe
M: 3/4
L: 1/16
K: G
D2B,2D2 | G6D2B,2D2 | E4D2
B2B2B2 | A6G2F2E2 | E4D2
D2D2G2 | B6ABc2B2 | A4z2
G2F2EE | D6D2E2F2 | G4z2

@@@ Tune index: 1451
